!!!COM: Mozart, Wolfgang Amadeus
!!!CDT: 1756///-1791///
!!!OTP: Viennese Sonatina No. 1 in C-major
!!!OTL: Sonatina in C-major
!!!GNM: No. 1
!!!OMV: No. 3
!!!OMD: Adagio
!!!ENC: Craig Stuart Sapp
!!!AIN: piano
!!!EEV: 18 March 2001
!!!YEC: Copyright 2001 by Craig Stuart Sapp
!!!YEN: United States of America
**kern	**kern
*k[b-]	*k[b-]
*met(C)	*met(C)
*M4/4	*M4/4
*MM88	*MM88
*>[A,A,B,B1,B,B2]	*>[A,A,B,B1,B,B2]
4r	4c
=1	=1
*>A	*>A
4F 4A	24ee
.	24ff
.	24gg
.	[8ff
4G 4B-	4ff_
4A 4c	8ff]
.	32gg
.	32ff
.	32ee
.	32ff
4B- 4d	8.aa
.	16gg
=2	=2
*	*^
4c	2a	2ff
4C	.	.
4c	4g	4ee
*	*v	*v
8.B-	8.ee 8.ddd
16A	16ff 16ccc
=3	=3
8A'	8ff' 8ccc'
8r	8r
8A'	8cc' 8ff'
8r	8r
8G'	8ee' 8bb-'
8r	8r
8F'	8ff' 8aa'
8r	8r
=4	=4
4c	8ff 8aa
.	8gg 8bb-
4C	8gg# 8bb
.	8aa 8ccc
8c	4ee 4gg
16d	.
16c	.
16B-	4r
16A	.
16G	.
16F	.
=5	=5
8E	2.cc 2.bb-
8G	.
8B-	.
8G	.
8E	.
8C	.
8BB-	4cc 4ee
8GG	.
=6	=6
*	*^
4AA	4cc	8gg
.	.	8ff
*	*v	*v
8A'	8r
8r	8cc' 8ff'
8G'	8r
8r	8cc' 8gg'
8F#'	8r
8r	8cc' 8aa'
=7	=7
2G	8gg
.	8ff# 8aa
.	8ff 8bb
.	8ee 8ccc
4GG	8ff 8ddd
.	8ee' 8ccc'
4G	8ff' 8ddd'
.	8gg' 8eee'
=8	=8
8r	2ff 2ddd
8G	.
8A	.
8Bn	.
8c	4ee 4ccc
8d	.
16c	4r
16B-	.
16A	.
16G	.
=9:!!:	=9:!!:
*>B	*>B
8F	1r
8c	.
8d	.
8e	.
8f	.
8g	.
16f	.
16e-	.
16d	.
16c#	.
=10	=10
2.d	8r
.	8ff
.	8gg
.	8aa
.	8bb-
.	8ccc
4c 4e-	16bb-
.	16aa
.	16gg
.	16ff#
=11	=11
*^	*
4B-	2.d	8gg
.	.	8ddd
4F#	.	8ccc#
.	.	8cccn
4G	.	8bbn
.	.	8bb-
8A	8c	8aa
8B-	8d	8gg
*v	*v	*
=12	=12
4c	2a 2ff
4C	.
8c	4g 4ee
16C	.
16D	.
16E	4r
16F	.
16G	.
16A	.
=13	=13
8B-	2.e 2.cc
8G	.
8E	.
8C	.
8BB-	.
8GG	.
8C	4g 4ee
8BB-	.
=14	=14
*	*^
4AA	4cc	8ff
.	.	8ee-
*	*v	*v
8A'	8r
8r	8f' 8cc#'
8B-'	8r
8r	8f' 8dd'
8d'	8r
8r	8f' 8b-'
=15	=15
2c	8r
.	8f 8a
.	8g 8b-
.	8g# 8bn
4C	8a 8cc
.	8gn 8b-
4c	8r
.	8b- 8ee
=16	=16
*>B1	*>B1
8r	2b- 2gg
8c	.
8d	.
8e	.
8f	4a 4ff
16e	.
16d	.
16c	4r
16B-	.
16A	.
16G	.
=17:|!	=17:|!
*>B2	*>B2
8r	2b- 2gg
8C	.
8D	.
8E	.
4F	4a 4ff
4r	4r
==	==
*-	*-
